icons/intensity_concentration_bioassays_fill.svg

<svg width="48" height="48" viewBox="0 0 48 48" fill="none" xmlns="http://www.w3.org/2000/svg">
<path fill-rule="evenodd" clip-rule="evenodd" d="M26 8C26 6.89543 26.8954 6 28 6H37C38.1046 6 39 6.89543 39 8V12H37.4667V14.1949C37.4667 15.0557 37.8364 15.875 38.4818 16.4444L40.3081 18.0559C41.3838 19.005 42 20.3705 42 21.8051V37C42 39.7614 39.7614 42 37 42H28C25.2386 42 23 39.7614 23 37V21.8051C23 20.3705 23.6162 19.005 24.6919 18.0559L26.5182 16.4444C27.1636 15.875 27.5333 15.0557 27.5333 14.1949V12H26V8ZM29.5333 12H35.4667V14.1949C35.4667 15.6295 36.0829 16.995 37.1586 17.9441L38.9849 19.5556C39.6303 20.125 40 20.9443 40 21.8051V37C40 38.6569 38.6569 40 37 40H28C26.3431 40 25 38.6569 25 37V21.8051C25 20.9443 25.3697 20.125 26.0151 19.5556L27.8414 17.9441C28.9171 16.995 29.5333 15.6295 29.5333 14.1949V12ZM32.5 21C32.7761 21 33 21.2239 33 21.5V24.2276C33.2805 24.492 33.5227 24.9726 33.6985 25.5944L34.5 24.7929V23.5C34.5 23.3674 34.5527 23.2402 34.6464 23.1464L36.1464 21.6464C36.3417 21.4512 36.6583 21.4512 36.8535 21.6464C37.0488 21.8417 37.0488 22.1583 36.8535 22.3536L35.5 23.7071V25C35.5 25.1326 35.4473 25.2598 35.3535 25.3536L33.9287 26.7784C33.9398 26.8707 33.9497 26.9644 33.9583 27.0595L38.7624 27.8571C38.9189 28.5714 38.6686 30 36.4159 30C35.1129 30 34.3752 29.3309 33.9847 28.5732C33.9733 28.7854 33.9556 28.9922 33.9322 29.1922L36.2867 30.8404C36.4769 30.9735 36.5505 31.2201 36.4642 31.4357L36.1473 32.228L37.1923 32.6635C37.4472 32.7697 37.5677 33.0624 37.4615 33.3173C37.3553 33.5722 37.0626 33.6927 36.8077 33.5865L35.3077 32.9615C35.0554 32.8564 34.9342 32.5681 35.0358 32.3143L35.3886 31.4323L33.7341 30.2742C33.6997 30.4066 33.6625 30.5332 33.6225 30.6534L33.9794 31.858C33.9931 31.9041 34 31.9519 34 32V32.9496L35.3904 34.6877C35.5629 34.9033 35.528 35.2179 35.3123 35.3904C35.0967 35.5629 34.7821 35.528 34.6096 35.3123L33.1096 33.4373C33.0386 33.3487 33 33.2385 33 33.125V32.0725L32.9293 31.8338C32.7933 31.9419 32.6492 32 32.5 32C32.367 32 32.238 31.9538 32.1152 31.8672L32 32.3135V33.125C32 33.2385 31.9614 33.3487 31.8904 33.4373L30.3904 35.3123C30.2179 35.528 29.9033 35.5629 29.6877 35.3904C29.472 35.2179 29.4371 34.9033 29.6096 34.6877L31 32.9496V32.25C31 32.2079 31.0053 32.1659 31.0159 32.1251L31.3878 30.6839C31.3355 30.5301 31.2877 30.3655 31.2449 30.1913L29.6066 31.4201L29.9642 32.3143C30.0658 32.5681 29.9446 32.8564 29.6923 32.9615L28.1923 33.5865C27.9374 33.6927 27.6447 33.5722 27.5385 33.3173C27.4323 33.0624 27.5528 32.7697 27.8077 32.6635L28.8527 32.228L28.5358 31.4357C28.4518 31.2258 28.5191 30.9856 28.7 30.85L31.0556 29.0833C31.0239 28.7812 31.005 28.4647 31.0009 28.1382C30.6834 29.0542 29.9332 30 28.3841 30C26.1314 30 25.8811 28.5714 26.0376 27.8571L31.0448 27.0258C31.0526 26.9422 31.0615 26.8597 31.0712 26.7784L29.6464 25.3536C29.5527 25.2598 29.5 25.1326 29.5 25V23.7071L28.1464 22.3536C27.9512 22.1583 27.9512 21.8417 28.1464 21.6464C28.3417 21.4512 28.6583 21.4512 28.8535 21.6464L30.3535 23.1464C30.4473 23.2402 30.5 23.3674 30.5 23.5V24.7929L31.3015 25.5944C31.4772 24.9726 31.7195 24.492 32 24.2276V21.5C32 21.2239 32.2239 21 32.5 21ZM27.1801 28.6811C27.3152 28.8112 27.6338 29 28.3841 29C29.1571 29 29.5596 28.683 29.8083 28.3151C29.8257 28.2893 29.8425 28.263 29.8586 28.2364L27.1801 28.6811ZM36.4159 29C37.1662 29 37.4848 28.8112 37.6199 28.6811L34.9414 28.2364C34.9575 28.263 34.9743 28.2893 34.9917 28.3151C35.2404 28.683 35.6429 29 36.4159 29Z" fill="black"/>
<path fill-rule="evenodd" clip-rule="evenodd" d="M10 9.77143H16V10.4667C15.3844 10.8043 15 11.4513 15 12.1558V19.8442C15 20.5487 15.3844 21.1957 16 21.5333V22.2285H10V21.5333C10.6156 21.1957 11 20.5487 11 19.8442V12.1558C11 11.4513 10.6156 10.8043 10 10.4667V9.77143ZM8 21.4891C8 20.7847 8.38438 20.1377 9 19.8001V12.1999C8.38438 11.8623 8 11.2153 8 10.5109V6H18.0571V9.77143H18V10.5109C18 11.2153 17.6156 11.8623 17 12.1999V19.8001C17.6156 20.1377 18 20.7847 18 21.4891V22.2285H18.0571V25.9999H8V21.4891Z" fill="black"/>
<path fill-rule="evenodd" clip-rule="evenodd" d="M8 28C6.89543 28 6 28.8954 6 30V40C6 41.1046 6.89543 42 8 42H18C19.1046 42 20 41.1046 20 40V30C20 28.8954 19.1046 28 18 28H8ZM16 30H18V40H16V30ZM14 34H12V40H14V34ZM10 37H8V40H10V37Z" fill="black"/>
</svg>

<svg
  xmlns="http://www.w3.org/2000/svg"
  width="24"
  height="24"
  viewBox="0 0 24 24"
  fill="none"
  stroke="currentColor"
  stroke-width="2"
  stroke-linecap="round"
  stroke-linejoin="round"
>
  <path
    fill-rule="evenodd"
    d="M26 8a2 2 0 0 1 2-2h9a2 2 0 0 1 2 2v4h-1.533v2.195a3 3 0 0 0 1.015 2.25l1.826 1.61A5 5 0 0 1 42 21.806V37a5 5 0 0 1-5 5h-9a5 5 0 0 1-5-5V21.805a5 5 0 0 1 1.692-3.75l1.826-1.61a3 3 0 0 0 1.015-2.25V12H26zm3.533 4h5.934v2.195a5 5 0 0 0 1.692 3.75l1.826 1.61A3 3 0 0 1 40 21.806V37a3 3 0 0 1-3 3h-9a3 3 0 0 1-3-3V21.805a3 3 0 0 1 1.015-2.25l1.826-1.61a5 5 0 0 0 1.692-3.75zm2.967 9a.5.5 0 0 1 .5.5v2.728c.28.264.523.745.699 1.366l.801-.801V23.5a.5.5 0 0 1 .146-.354l1.5-1.5a.5.5 0 0 1 .707.708L35.5 23.707V25a.5.5 0 0 1-.147.354l-1.424 1.424.03.282 4.803.797c.157.714-.093 2.143-2.346 2.143-1.303 0-2.04-.67-2.431-1.427q-.018.319-.053.62l2.355 1.647a.5.5 0 0 1 .177.596l-.317.792 1.045.435a.5.5 0 1 1-.384.924l-1.5-.626a.5.5 0 0 1-.272-.647l.353-.882-1.655-1.158a6 6 0 0 1-.111.38l.356 1.204q.021.07.021.142v.95l1.39 1.738a.5.5 0 1 1-.78.624l-1.5-1.875a.5.5 0 0 1-.11-.312v-1.053l-.07-.238a.7.7 0 0 1-.43.166.66.66 0 0 1-.385-.133l-.115.446v.812a.5.5 0 0 1-.11.312l-1.5 1.875a.5.5 0 1 1-.78-.624L31 32.95v-.7q0-.063.016-.125l.372-1.441a6 6 0 0 1-.143-.493l-1.638 1.23.357.893a.5.5 0 0 1-.272.648l-1.5.624a.5.5 0 1 1-.384-.922l1.045-.436-.317-.792a.5.5 0 0 1 .164-.586l2.356-1.767q-.048-.454-.055-.945c-.318.916-1.068 1.862-2.617 1.862-2.253 0-2.503-1.429-2.346-2.143l5.007-.831q.012-.126.026-.248l-1.425-1.424A.5.5 0 0 1 29.5 25v-1.293l-1.354-1.353a.5.5 0 0 1 .707-.708l1.5 1.5a.5.5 0 0 1 .147.354v1.293l.802.801c.175-.621.418-1.102.698-1.366V21.5a.5.5 0 0 1 .5-.5m-5.32 7.681c.135.13.454.319 1.204.319.773 0 1.176-.317 1.424-.685q.027-.039.05-.079zm9.236.319c.75 0 1.069-.189 1.204-.319l-2.679-.445.05.08c.25.367.652.684 1.425.684"
    clip-rule="evenodd"
  />
  <path
    fill-rule="evenodd"
    d="M10 9.771h6v.696c-.616.337-1 .984-1 1.689v7.688c0 .705.384 1.352 1 1.69v.695h-6v-.696c.616-.337 1-.984 1-1.689v-7.688c0-.705-.384-1.352-1-1.69zM8 21.49c0-.704.384-1.351 1-1.689v-7.6c-.616-.338-1-.985-1-1.69V6h10.057v3.771H18v.74c0 .704-.384 1.351-1 1.689v7.6c.616.338 1 .985 1 1.69v.739h.057v3.77H8z"
    clip-rule="evenodd"
  />
  <path
    fill-rule="evenodd"
    d="M8 28a2 2 0 0 0-2 2v10a2 2 0 0 0 2 2h10a2 2 0 0 0 2-2V30a2 2 0 0 0-2-2zm8 2h2v10h-2zm-2 4h-2v6h2zm-4 3H8v3h2z"
    clip-rule="evenodd"
  />
</svg>
